X:0869
M:6/8
L:1/8
Q:3/8=120
K:A Dorian
aea aea|a>ba/g/ b>d'c'/a/| gfg        efg |dBA     GAB|\
aea aea|a>ba/g/ b>c'b/a/ | geg        dBG |A3-     A3 |
aea aea|a>ba/g/ b>c'b/a/ | gfg        efg |d>cB/A/ GAB|\

